X: 1
T: Bonnie Cluden Mill
C: Max Houliston
R: jig
Z: 2014 John Chambers <jc:trillian.mit.edu>
S: Image from George Meikle, via Sylvia Miskoe
N: Part of a set for The Brudenell Jig, in a dance program from 2012
M: 6/8
L: 1/8
K: G
B |:\
"G"dBG "Em"EFG | "Am"AGE "D7"D2C | "G"B,DD GDD | "A7"EGB "D7"ABc |\
"G"dBG "Em"EFG | "Am"AGE "D7"D2C | "G"B,DG "D7"FEG |1 "G"G3 G2B :|2 "G"G3 GBc |]
|:\
"G"dgf "Em"gdB | "Am"cag "D"fef | "C"gec "G"dBG | "A7"AGE "D7"DBc |\
"G"dgf "Em"gdB | "Am"cag "B7"fef | "C"gec "D7"dcA |1 "G"G3 "D7"GBc :|2 "G"G3 G2 |]
